creative/fonts/zosokw.svg

<?xml version="1.0" encoding="UTF-8" standalone="no"?>
<svg width="500" height="650" version="1.1" id="svg2" sodipodi:docname="zosokw.svg" inkscape:version="1.4.3 (0d15f750, 2025-12-25)" xmlns:inkscape="http://www.inkscape.org/namespaces/inkscape" xmlns:sodipodi="http://sodipodi.sourceforge.net/DTD/sodipodi-0.dtd" xmlns="http://www.w3.org/2000/svg" xmlns:svg="http://www.w3.org/2000/svg">
    <defs id="defs2" />
    <sodipodi:namedview id="namedview2" pagecolor="#ffffff" bordercolor="#000000" borderopacity="0.25" inkscape:showpageshadow="2" inkscape:pageopacity="0.0" inkscape:pagecheckerboard="0" inkscape:deskcolor="#d1d1d1" inkscape:zoom="0.38956522" inkscape:cx="250.27902" inkscape:cy="326.00446" inkscape:window-width="1095" inkscape:window-height="647" inkscape:window-x="0" inkscape:window-y="25" inkscape:window-maximized="0" inkscape:current-layer="svg2" />
    <path id="path1" d="M 50 100 A 25 25 0 0 0 32.412109 107.32227 L 32.322266 107.32227 L 32.322266 107.41211 A 25 25 0 0 0 25 125 A 25 25 0 0 0 32.322266 142.58789 L 32.322266 142.67773 L 214.64453 325 L 32.322266 507.32227 A 25 25 0 0 0 25 525 A 25 25 0 0 0 32.322266 542.58789 L 32.322266 542.67773 L 32.412109 542.67773 A 25 25 0 0 0 50 550 A 25 25 0 0 0 67.587891 542.67773 L 67.677734 542.67773 L 250 360.35547 L 432.32227 542.67773 L 432.41211 542.67773 A 25 25 0 0 0 450 550 A 25 25 0 0 0 467.58789 542.67773 L 467.67773 542.67773 L 467.67773 542.58789 A 25 25 0 0 0 475 525 A 25 25 0 0 0 467.67773 507.32227 L 285.35547 325 L 467.67773 142.67773 L 467.67773 142.58789 A 25 25 0 0 0 475 125 A 25 25 0 0 0 467.67773 107.41211 L 467.67773 107.32227 L 467.58789 107.32227 A 25 25 0 0 0 450 100 A 25 25 0 0 0 432.32227 107.32227 L 250 289.64453 L 67.677734 107.32227 A 25 25 0 0 0 50 100 z " />
</svg>

<svg width="500" height="650" xmlns="http://www.w3.org/2000/svg">
    <path
        d="m 50,100 a 25,25 0 0 0 -17.587891,7.32227 h -0.08984 v 0.0898 A 25,25 0 0 0 25,125 a 25,25 0 0 0 7.322266,17.58789 v 0.0898 l 400.000004,400 h 0.0898 A 25,25 0 0 0 450,550 a 25,25 0 0 0 17.58789,-7.32227 h 0.0898 v -0.0898 A 25,25 0 0 0 475,525 25,25 0 0 0 467.67773,507.32227 l -399.999996,-400 A 25,25 0 0 0 50,100 Z m 400,0 a 25,25 0 0 0 -17.67773,7.32227 l -400.000004,400 A 25,25 0 0 0 25,525 a 25,25 0 0 0 7.322266,17.58789 v 0.0898 h 0.08984 A 25,25 0 0 0 50,550 25,25 0 0 0 67.587891,542.67773 h 0.08984 l 399.999996,-400 v -0.0898 A 25,25 0 0 0 475,125 25,25 0 0 0 467.67773,107.41211 v -0.0898 h -0.0898 A 25,25 0 0 0 450,100 Z M 50,300 v 0.38 A 25,25 0 0 0 25,325 25,25 0 0 0 50,349.62 V 350 h 400 v -0.38 A 25,25 0 0 0 475,325 25,25 0 0 0 450,300.38 V 300 Z M 250,100 A 225,225 0 0 0 25,325 225,225 0 0 0 250,550 225,225 0 0 0 475,325 225,225 0 0 0 250,100 Z m 0,50 A 175,175 0 0 1 425,325 175,175 0 0 1 250,500 175,175 0 0 1 75,325 175,175 0 0 1 250,150 Z m 0,50 A 125,125 0 0 0 125,325 125,125 0 0 0 250,450 125,125 0 0 0 375,325 125,125 0 0 0 250,200 Z m 0,50 a 75,75 0 0 1 75,75 75,75 0 0 1 -75,75 75,75 0 0 1 -75,-75 75,75 0 0 1 75,-75 z"
        style="fill:none;stroke:#ff0000" />
</svg>
